X:1
T:My Mother's Coming In
L:1/8
M:2/2
I:linebreak $
K:D
V:1 treble 
V:1
|: f |"D" d2 AB/c/ dAFD |"Em" GEed"A" cAA=c |"G" B2 GB"D" AdFA |"Em" GE"A7"AG"D" FDD :| g | %6
"D" f2 df"A" eace |$"Bm" dBed"A" cAA=c |"G" B2 GB"D" AdFA |"Em" GB"A7"AG"D" FDD || g | %11
"D" fefd"A" eace |"Bm" dBed"A" cAA=c |$"G" BABG"D" FGA=c |"G" BG"A7"ge"D" fdd |] %15
